X:1
T:Title
%%score [ ( 1 2 ) ( 3 4 ) ] { ( 5 6 ) | ( 7 8 ) }
L:1/8
Q:1/4=120
M:2/2
K:C
V:1 treble nm="Midi_74"
V:2 treble 
V:3 treble nm="Midi_74"
V:4 treble 
V:5 treble nm="Organ"
V:6 treble 
V:7 bass 
V:8 bass 
V:1
"^Unison""^The Son of God goes forth to war""^Reginald Heber\n(1783-1826)" z8 | %1
w: |
"^moderately slow" z4"^St Anne (C.M.)""^William Croft (1678-1727)\narranged by Sir Arthur Sullivan\n(1842-1900)"!f! G4 | %2
w: The|
 E4 A4 | G4 c4 | c4 B4 | c4 || G4 x4 | c4 G4 | A4 ^F4 x4 | G8- | G2 z2 ||[M:2/2] B4 x4 | c4 A4 | %13
w: Son of|God goes|forth to|war,|A|king- ly|crown to|gain;||His|blood- red|
 d4 B4 | c4 A4 | B4 || G4 x4 | A4 c4 | d4 B4 | c8 ||"^Harmony" z4!mf! G4 | E4 A4 | G4 c4 | c4 B4 | %24
w: ban- ner|streams a-|far:|Who|fol- lows|in His|train?|||||
 c4 || G4 x4 | c4 G4 | A4 ^F4 | G8 || z4 B4 | c4 A4 | d4 B4 | c4 A4 | B4 || G4 x4 | A4 c4 | d4 B4 | %37
w: |||||||||||||
 c8 ||[M:2/2] z8 | z8 | z8 | z8 | z4 || z4 x4 | z8 | z8 | z8 |[M:2/2] z8 | z8 | z8 | z8 | z4 || %52
w: |||||||||||||||
 z4 x4 | z8 | z8 | z8 |[M:2/2]"^Harmony" z4!mf! G4 | E4 A4 | G4 c4 | c4 B4 | c4 || G4 x4 | c4 G4 | %63
w: |||||||||||
 A4 ^F4 | G8 || z4 B4 | c4 A4 | d4 B4 | c4 A4 | B4 || G4 x4 | A4 c4 | d4 B4 | c8 || %74
w: |||||||||||
 z4"^Trebles only" G4 | E4 A4 | G4 c4 | c4 B4 | c4 || G4 x4 | c4 G4 | A4 ^F4 | G8 || z4 B4 | %84
w: A|glo- rious|band, the|cho- sen|few|On|whom the|Spi- rit|came,|Twelve|
 c4 A4 | d4 B4 | c4 A4 | B4 || G4 x4 | A4 c4 | d4 B4 | c8 ||[M:2/2] z8 | z8 | z8 | z8 | z4 || %97
w: va- liant|saints, their|hope they|know,|And|mocked the|cross and|flame;||||||
 z4 x4 | z8 | z8 | z8 |[M:2/2] z8 | z8 | z8 | z8 | z4 || z4 x4 | z8 | z8 | z8 | %110
w: |||||||||||||
[M:2/2]"^Harmony" z4!mf! G4 | E4 A4 | G4 c4 | c4 B4 | c4 || G4 x4 | c4 G4 | A4 ^F4 | G8 || z4 B4 | %120
w: ||||||||||
 c4 A4 | d4 B4 | c4 A4 | B4 || G4 x4 | A4 c4 | d4 B4 |[Q:1/4=100][Q:1/4=100] c8 || %128
w: ||||||||
[Q:1/4=100] z4!ff! G4 | E4 A4 | G4 c4 | c4 B4 | c4 || G4 x4 | c4 G4 | %135
w: |||||||
[Q:1/4=97] A4[Q:1/4=86] ^F4[Q:1/4=91][Q:1/4=82] |"^rall."[Q:1/4=80] G8- | %137
w: ||
[Q:1/4=100] !fermata!G2 z2 ||!p!!p! B4 x4 | c4 A4 | d4 B4 | c4 A4 | B4 || G4 x4 | A4 c4 | d4 B4 | %146
w: |||||||||
 c8 | c4 c4 || c8 | c8 |] %150
w: |A- men,|||
V:2
 x8 | x8 | x8 | x8 | x8 | x4 || x8 | x8 | x12 | x8 | x4 ||[M:2/2] x8 | x8 | x8 | x8 | x4 || x8 | %17
w: |||||||||||||||||
 x8 | x8 | x8 || z4 C4 | C4 (C2 D2) | E4 E4 | D4 D4 | E4 || E4 x4 | E4 E4 | E4 D4 | D8 || z4 D4 | %30
w: |||Who|best can *|drink His|cup of|woe,|Tri-|um- phant|o- ver|pain,|Who|
 E4 C4 | F4 D4 | E6 D2 | B,4 || C4 x4 | F4 E4 | D4 D4 | E8 ||[M:2/2] x8 | x8 | x8 | x8 | x4 || x8 | %44
w: pa- tient|bears his|cross be-|low,|He|fol- lows|in His|train.|||||||
 x8 | x8 | x8 |[M:2/2] x8 | x8 | x8 | x8 | x4 || x8 | x8 | x8 | x8 |[M:2/2] z4 D4 | C4 (C2 D2) | %58
w: ||||||||||||Like|Him, with *|
 E4 E4 | D4 D4 | E4 || E4 x4 | E4 E4 | E4 D4 | D8 || z4 D4 | E4 C4 | F4 D4 | E6 D2 | B,4 || C4 x4 | %71
w: par- don|on his|tongue|In|midst of|mor- tal|pain,|He|prayed for|them that|did the|wrong:|Who|
 F4 E4 | D4 D4 | E8 || x8 | x8 | x8 | x8 | x4 || x8 | x8 | x8 | x8 || x8 | x8 | x8 | x8 | x4 || %88
w: fol- lows|in His|train?|||||||||||||||
 x8 | x8 | x8 | x8 ||[M:2/2] x8 | x8 | x8 | x8 | x4 || x8 | x8 | x8 | x8 |[M:2/2] x8 | x8 | x8 | %104
w: ||||||||||||||||
 x8 | x4 || x8 | x8 | x8 | x8 |[M:2/2] z4 C4 | C4 (C2 D2) | E4 E4 | D4 D4 | E4 || E4 x4 | E4 E4 | %117
w: ||||||A|no- ble *|ar- my,|men and|boys,|The|ma- tron|
 E4 D4 | D8 || z4 D4 | E4 C4 | F4 D4 | E6 D2 | B,4 || C4 x4 | F4 E4 | D4 D4 | E8 || z4 G4 | E4 A4 | %130
w: and the|maid,|A-|round the|Sa- viour's|throne re-|joice,|In|robes of|light ar-|rayed;|They|climbed the|
 G4 c4 | c4 B4 | c4 || G4 x4 | c4 G4 | A4 ^F4 | G8- | G2 z2 || F4 x4 | E4 F4 | F4 F4 | E4 ^F4 | %142
w: steep as-|cent of|heaven,|Through|pe- ril,|toil and|pain;||O|God, to|us may|grace be|
 G4 || E4 x4 | F4 F4 | B,4 D4 | C8 | z8 || F8 | E8 |] %150
w: given|To|fol- low|in their|train.||A-|men.|
V:3
 z8 | z8 | z8 | z8 | z8 | z4 || z8 | z8 | z12 | z4 x4 |[M:2/2] z4 || z8 | z8 | z8 | z4 x4 | z4 || %16
w: ||||||||||||||||
 z8 | z8 | z8 |[M:2/2][K:bass] z4"^Ch. with voices. No Pedals." E,4 || G,4 (A,2 B,2) | C4 C4 | %22
w: ||||||
 A,4 G,4 | G,4 x4 | C4 || C4 B,4 | A,4 A,4 | B,8 | z4 G,4 || G,4 A,4 | A,4 G,4 | G,4 A,4 | %32
w: ||||||||||
 ^G,4 x4 | !courtesy!=G,4 || F,4 G,4 | A,4 G,4 | G,8 | z4"^Unison Men's voices" G,4 || E,4 A,4 | %39
w: |||||The|mar- tyr|
 G,4 C4 | C4 B,4 | C4 x4 | G,4 || C4 G,4 | A,4 ^F,4 | G,8 | z4 B,4 | C4 A,4 | D4 B,4 | C4 A,4 | %50
w: first, whose|ea- gle|eye|Could|pierce be-|yond the|grave,|Who|saw his|Mas- ter|in the|
 B,4 x4 | G,4 || A,4 C4 | D4 B,4 | C8 | z4"^Ch. No Pedals." G,4 | G,4 (A,2 B,2) | C4 C4 | A,4 G,4 | %59
w: sky,|And|called on|Him to|save;|||||
 G,4 x4 | C4 || C4 B,4 | A,4 A,4 | B,8 | z4 G,4 || G,4 A,4 | A,4 G,4 | G,4 A,4 | ^G,4 x4 | %69
w: ||||||||||
 !courtesy!=G,4 || F,4 G,4 | A,4 G,4 | G,8 |[M:2/2] z8 || z8 | z8 | z8 | z4 x4 | z4 || z8 | z8 | %81
w: ||||||||||||
 z8 |[M:2/2] z8 || z8 | z8 | z8 | z4 x4 | z4 || z8 | z8 | z8 |[M:2/2] z4!f! G,4 || E,4 A,4 | %93
w: ||||||||||They|met the|
 G,4 C4 | C4 B,4 |!<(! C4 x4 | G,4 || C4!<)! G,4 | A,4 ^F,4 | G,8 | z4 B,4 | C4 A,4 | D4 B,4 | %103
w: ty- rant's|bran- dished|stell,|The|li- on's|go- ry|mane,|They|bowed their|necks the|
 C4 A,4 | B,4 x4 | G,4 || A,4 C4 | D4 B,4 | C8 | z4"^Ch. No Pedals." E,4 | G,4 (A,2 B,2) | C4 C4 | %112
w: death to|feel:|Who|fol- lows|in their|train?||||
 A,4 G,4 | G,4 x4 | C4 || C4 B,4 | A,4 A,4 | B,8 | z4 G,4 || G,4 A,4 | A,4 G,4 | G,4 A,4 | %122
w: ||||||||||
 ^G,4 x4 | !courtesy!=G,4 || F,4 G,4 | A,4 G,4 | G,8 | z4!ff! G,4 || E,4 A,4 | G,4 C4 | C4 B,4 | %131
w: |||||||||
 C4 x4 | G,4 || C4 G,4 | A,4 ^F,4 |"^rall." G,8- | G,2 z2 x4 |!p!!p! D4 || C4 C4 | B,4 D4 | C4 C4 | %141
w: ||||||||||
 B,4 x4 | _B,4 || A,4 _A,4 | G,4 F,4 | E,8 | z8 | A,8 || G,8 | x8 |] %150
w: |||||||||
V:4
 x8 | x8 | x8 | x8 | x8 | x4 || x8 | x8 | x12 | x8 |[M:2/2] x4 || x8 | x8 | x8 | x8 | x4 || x8 | %17
 x8 | x8 |[M:2/2][K:bass] z4 C,4 || C,4 F,4 | E,4 A,4 | F,4 G,4 | C,4 x4 | C,4 || A,,4 E,4 | %26
 C,4 D,4 | G,8 | z4 G,4 || C,4 F,4 | D,4 G,4 | C,4 F,4 | E,4 x4 | E,4 || D,4 C,4 | F,4 G,4 | C,8 | %37
 x8 || x8 | x8 | x8 | x8 | x4 || x8 | x8 | x8 | x8 | x8 | x8 | x8 | x8 | x4 || x8 | x8 | x8 | %55
 z4 B,,4 | C,4 F,4 | E,4 A,4 | F,4 G,4 | C,4 x4 | C,4 || A,,4 E,4 | C,4 D,4 | G,,8 | z4 G,4 || %65
 C,4 F,4 | D,4 G,4 | C,4 F,4 | E,4 x4 | E,4 || D,4 C,4 | F,4 G,4 | C,8 |[M:2/2] x8 || x8 | x8 | %76
 x8 | x8 | x4 || x8 | x8 | x8 |[M:2/2] x8 || x8 | x8 | x8 | x8 | x4 || x8 | x8 | x8 |[M:2/2] x8 || %92
 x8 | x8 | x8 | x8 | x4 || x8 | x8 | x8 | x8 | x8 | x8 | x8 | x8 | x4 || x8 | x8 | x8 | x4 C,4 | %110
 C,4 F,4 | E,4 A,4 | F,4 G,4 | C,4 x4 | C,4 || A,,4 E,4 | C,4 D,4 | G,,8 | z4 G,4 || C,4 F,4 | %120
 D,4 G,4 | C,4 F,4 | E,4 x4 | E,4 || D,4 C,4 | F,4 G,4 | C,8 | z4 G,4 || E,4 A,4 | G,4 C4 | %130
 C4 B,4 | C4 x4 | G,4 || C4 G,4 | A,4 ^F,4 | G,8- | !fermata!G,2 z2 x4 | G,4 || G,4 G,4 | G,4 G,4 | %140
 A,4 D,4 | G,4 x4 | C,4 || F,4 D,4 | G,,4 G,,4 | C,8 | z8 | F,8 || C,8 | x8 |] %150
V:5
!f! e8- | e2 z2 G4 | E4 A4 | G4 e4 | f4 g4 | e4 || d4 e4 | g4 c4 | d4 B8- | B2 z2 x4 |[M:2/2] x4 || %11
 x8 | x8 | a2 g2 ^f2 e2 | [B^d]4 x4 | e4 || f4 ^f4 | g4 B4 | c8 |[M:2/2] z8 || z8 | z8 | z8 | %23
 z4 x4 | z4 || z8 | z8 | z8 |[M:2/2] z8 || z8 | z8 | z8 | z4 x4 | z4 || z8 | z8 | z8 | %37
[M:2/2] z4"^Gt. Diap. Sw. Reeds." [CG]4 || [CE]4 [FA]4 |!<(! [EG]4 [_E^Fc]4!<)! |!>(! [=Fg]8!>)! | %41
 [Ece]4 x4 | [Gd]4 || x8 | g4 a4 | b8- | b2 z2 B4 | c4 d4 | e8 | e4 (^f2 e2) | ^d4 x4 | [Ee]4- || %52
 [Ee]4 x4 | x8 | x8 |[M:2/2] z8 | z8 | z8 | z8 | z4 x4 | z4 || z8 | z8 | z8 |[M:2/2] z8 || z8 | %66
 z8 | z8 | z4 x4 | z4 || z8 | z8 | z8 |[M:2/2] z4!p! [CEG]4- || [CE]4 [FA]4 | [EG]4 [Fc]4 | %76
 [Ec]4 [DB]4 | [Cc]4 x4 | [CG]4 || [C^Fc]4 [DG]4 | [EA]4 [D^F]4 | [DG]8 | z4 [Bd]4 || [cg]4 [ca]4 | %84
 [Bg]4 [FB]4 | [Ec]4 [^FA]4 | [GB]4 x4 | [E_B]4 || A4 _A4 | G8- | G8 |"^cresc." G8 || G4 [B,^DA]4 | %93
 [B,EG]4 [EAe]4 | [^Fce]4 [FB^d]4 | e4- x4 | e4 || [G_Bg]8 | [FAf]4 [^FA^d]4 | x8 | x8 | x8 | d8 | %103
 e4 [^da]4 | x4 x4 | x4 || x8 | x8 | x8 | z8 | z8 | z8 | z8 | z4 x4 | z4 || z8 | z8 | z8 | %118
[M:2/2] z8 || z8 | z8 | z8 | z4 x4 | z4 || z8 | z8 | z8 |[M:2/2] z4!ff! G,2 B,2 || C2 B,2 C2 D2 | %129
 E2 G2 c2 d2 | e2 a2 [Bg]2 [GB]2 | [CEGc]2 [G,G]2 x4 | [Dd]2 [B,B]2 || [G,G]2 [A,A]2 [B,B]2 [Dd]2 | %134
 [Gg]2 [^F^f]2 [Gg]2 [Aa]2 | [Bb]2 [Aa]2 [Gg]2 [^F^f]2 | [Gg]2 z2 x4 |!pp! ([FB]4 || [Ec]2 z2) z4 | %139
 z8 | z8 | z4 x4 | z4 || z8 | [FG]8 | [EG]8 | c4 c4 | [Cc]4 [Dd]4 || [Ee]8 | x8 |] %150
V:6
 [EG]8- | [EG]2 x2 x4 | x8 | x4 [Gc]4 | [Ad]4 [Gd]4 | [Gc]4 || [GB]4 [Gc]4 | [Gd]4 [EA]4 | %8
 [DA]4 [DG]8- | [DG]2 z2 x4 |[M:2/2] [Gdg]4 || [Gce]4 [A^ca]4 | [Ad^f]4 [B^db]4 | e4 [Ac]4 | %14
 ^F4 x4 | [EB]4 || [Ac]4 [Ae]4 | [Gd]4 G4- | G8 |[M:2/2] x8 || x8 | x8 | x8 | x8 | x4 || x8 | x8 | %27
 x8 |[M:2/2] x8 || x8 | x8 | x8 | x8 | x4 || x8 | x8 | x8 |[M:2/2] x8 || x8 | x8 | c4 B4 | x4 x4 | %42
 x4 || [Ge]4 [GBg]4 | [Ac]8 | [Bd]8- | [Bd]2 z2 E4 | E4 A4 | A4 ^G4 | A8 | B4 x4 | x4 || %52
 x4 [Aa]4- | [Aa]4 [^G^g]4 | [Aa]8 |[M:2/2] x8 | x8 | x8 | x8 | x8 | x4 || x8 | x8 | x8 | %64
[M:2/2] x8 || x8 | x8 | x8 | x8 | x4 || x8 | x8 | x8 |[M:2/2] x8 || x8 | x8 | x8 | x8 | x4 || x8 | %80
 x8 | x8 | x4 [FG]4 || [EG]4 [_E^F]4 | [D=F]4 D4 | C4 C4 | B,4 x4 | C4 || C8 | [B,D]8 | [G,C]8- | %91
 [G,C]8 || [G,C]4 x4 | x8 | x8 | [EAc]4- x4 | [EGB]4 || x8 | x8 | [Ge]4 [A^d^f]4 | %100
 [Geg]4 [^Gde^g]4 | [Acea]4- [A^cg]4 | [A^f]4 [^G=f]4 | [Ac]8 | [Be^g]4 x4 | [c!courtesy!=g_b]4 || %106
 [cfa]8 | [Bd_a]8 | [Gcg]8 | x8 | x8 | x8 | x8 | x8 | x4 || x8 | x8 | x8 |[M:2/2] x8 || x8 | x8 | %121
 x8 | x8 | x4 || x8 | x8 | x8 |[M:2/2] x8 || x4 C4- | C4 E2 F2 | [EG]2 [_E^F]2 [D=F]4 | x4 x4 | %132
 x4 || x4 B,4 | [CE]4- [C_E]4 | [B,D]2 [C_E]2 [B,D]2 [A,CE]2 | [B,D]2 z2 x4 | x4 || x8 | x8 | x8 | %141
 x4 x4 | x4 || x8 | x8 | x8 | x8 | x8 || x8 | x8 |] %150
V:7
 [G,C]8- | [G,C]2 z2 G,4 | E,4 A,4 | G,4"^Ped." E4 | D4 D4 | C4 || D4 E4 | [B,D]4 C4 | A,4 B,8- | %9
 B,2 z2 x4 |[M:2/2] x4 || x8 | x8 | E8 | x4 x4 | x4 || x8 | [G,,-G,-F]8 | [C,G,CE]8 |[M:2/2] x8 || %20
 x8 | x8 | x8 | x8 | x4 || x8 | x8 | x8 |[M:2/2] x8 || x8 | x8 | x8 | x8 | x4 || x8 | x8 | x8 | %37
[M:2/2] x8 || x8 | x8 | [G,D]8 | x4 x4 | D4 || E4 D4 | [A,C]8 | [G,B,]8- | [G,B,]2 x2 ^G,4 | %47
 A,4 A,4 | B,4 E2 D2 | C2 B,2 C4 | ^F,4 x4 | x4 || x8 | x8 | x8 |[M:2/2] x8 | x8 | x8 | x8 | x8 | %60
 x4 || x8 | x8 | x8 |[M:2/2] x8 || x8 | x8 | x8 | x8 | x4 || x8 | x8 | x8 |[M:2/2] x8 || x8 | %75
!p! C8 | x8 | G,4 x4 | G,4 || A,4 B,4 | C8 | B,8 | x8 || x8 | x8 | x8 | x4 x4 | x4 || F,8- | F,8 | %90
"^Ped." E,8- | [C,E,]8 || [C,E,]4 B,,4 | x8 | x8 | [A,C]4 x4 | [G,B,]4 || [G,_B,E]8 | [A,C]8 | %99
 [C,C]8 | x8 | x8 | x8 | x8 | [E,,E,]4 x4 | [G,C]4 || [A,C]8 | [_A,B,D]8 | [G,CE]8 | [C,,C,]4 z4 | %110
 z8 | z8 | z8 | z4 x4 | z4 || z8 | z8 | z8 |[M:2/2] x8 || x8 | x8 | x8 | x8 | x4 || x8 | x8 | x8 | %127
[M:2/2] z4!ff! G,,2 B,,2 || C,2 B,,2 C,2 D,2 | E,2 G,2 C2 D2 | [G,,G,]8- | [G,,G,]4 x4 | %132
 [F,,F,]4 || [E,,E,]4 [D,,D,]4 | [C,,C,]8 | G,,8- | !fermata!G,,2 z2 x4 |!pp! x4 || x8 | z8 | z8 | %141
 z4 x4 |"^16ft Ped. only"!pp! z4 || z8 | [G,B,]8 | [G,C]8 | x8 | A,8 || [G,C]8 | x8 |] %150
V:8
 [C,,C,]8- | [C,,C,]2 x2 z4 | z8 | z4 [C,C]4 | [C,C]4 [B,,B,]4 | [C,C]4 || [G,,G,]4 [C,C]4 | %7
 [G,,G,]4 [A,,A,]4 | [^F,,^F,]4 [G,,G,]8- | [G,,G,]2 z2 x4 |[M:2/2] [B,,B,]4 || [C,C]4 [A,,A,]4 | %12
 [D,D]4 [B,,B,]4 | [C,C]4 [A,,A,]4 | [B,,B,]4 x4 | [G,,G,]4 || [A,,A,]4 [C,C]4 | B,4 D4 | x8 | %19
[M:2/2] x8 || x8 | x8 | x8 | x8 | x4 || x8 | x8 | x8 |[M:2/2] x8 || x8 | x8 | x8 | x8 | x4 || x8 | %35
 x8 | x8 |[M:2/2] z4"^Ped." [C,E,]4 || [C,G,]4 [D,B,]4 | [E,C]4 [A,C]4 | G,4 G,,4 | [C,G,C]4 x4 | %42
 [B,,B,]4 || [C,C]4 [D,B,]4 | _E,6 C,2 | [G,,D,]8- | [G,,D,]2 z2 E,4 | A,4 F,4 | E,8 | A,4 C,4 | %50
 B,,4 x4 | [E,G,]4 || [A,C]8 | [E,B,D]8 | [A,,E,A,C]8 |[M:2/2] x8 | x8 | x8 | x8 | x8 | x4 || x8 | %62
 x8 | x8 |[M:2/2] x8 || x8 | x8 | x8 | x8 | x4 || x8 | x8 | x8 |[M:2/2] z8 || %74
 z4!p!"^No pedals" C4 | _B,4 A,4 | [G,C]4 [F,G,]4 | E,4 x4 | _E,4 || D,8 | D,8 | G,8- | G,8 || %83
 G,8 | G,4 G,4 | A,4 D,4 | G,4 x4 | C,4 || z8 | G,,8- | [C,,G,,]8 | [C,,G,,]8 || [C,,G,,]4 x4 | %93
 E,4 [C,C]4 | [A,,A,]4 [B,,B,]4 | [E,,E,]4- x4 | [E,,E,]4 || [C,,C,]8- | [C,,C,]8 | x8 | [B,,B,]8 | %101
 [A,,A,]8- | [A,,A,]8 | [A,,A,]4 [B,,B,]4 | x4 x4 | [E,,E,]4 || [F,,F,]8- | [F,,F,]8 | [C,,C,]8- | %109
 x8 | x8 | x8 | x8 | x8 | x4 || x8 | x8 | x8 |[M:2/2] x8 || x8 | x8 | x8 | x8 | x4 || x8 | x8 | %126
 x8 |[M:2/2] x8 || x4 C,4 | B,,4 A,,4 | x8 | x4 x4 | x4 || x8 | x8 | x8 | x4 x4 | [G,-D]4 || %138
 [G,C]2 z2 z4 | z8 | x8 | x4 x4 | C,,4 || F,,4 D,,4 | G,,8 | C,,8 | z8 | [F,,C,-]8 || [C,,C,]8 | %149
 x8 |] %150

